X:1
T:Tous les plaisirs
T:Jean Conseil
T:Source : 29 Chansons à 4 parties---Paris---P.Attaignant---1530. Editor : André Vierendeels (20/12/17). Notes : Original clefs : C1, C3, C4, F4 Original note values have been halved Editorial accidentals above the staff Dotted bracket indicates black notes
T:Tous les plaisirs
T:©
T:©
T:©
T:©
C:Jean Conseil
Z:©
%%score [ 1 [ 2 3 ] 4 ]
L:1/8
Q:1/4=120
M:2/2
K:F
V:1 treble nm="Soprano" snm="S"
V:2 treble nm="Alto 1" snm="T 1"
V:3 treble-8 nm="Tenor 2" snm="T 2"
V:4 bass nm="Bass" snm="B"
V:1
 z8 | z8 | z2 d2 d4 | c4 BABc | d2 A2 c2 c2 | dcBA B2 c2 | ABcA B2 A2- | AG G4 F2 | G4 z2 d2 | %9
w: ||Tous les|pla- sirs _ _ _|_ _ qu'en lan-|gueur _ _ _ _ _|_ _ _ _ _ _||* tous|
 c2 B2 A2 G2 | d6 d2 | c2 d3 cBA | B4 A4 | z2 A2 A4 | B4 A4- | A2 A2 d4 | c4 B4 | A6 B2- | %18
w: les en- nuys qu'en|ioy- e|ie main- * * *|* tiens,|tout l'es-|poir bon|_ que ta|ri- gueur|per- *|
 BA A4 G2 | A8- | A4 z4 | z2 d2 d4 | c4 d4- | d2 c2 B2 B2 | A2 c3 B B2- | B2 A2 B4- | B4 z4 | %27
w: |met,|_|tous les|re- gretz|_ où ta mer-|cy me _ _|_ _ met,|_|
 z4 z2 d2 | d4 c4 | BABc d2 A2 | c2 c2 dcBA | B2 c2 ABcA | B2 A3 G G2- | G2 F2 G4- | G4 z4 | %35
w: vien-|nent de|toy _ _ _ _ que|pour moy _ _ _ _|_ ie re- * * *||* * tiens.|_|
 z4 z2 d2 | d4 c4 | BABc d2 A2 | c2 c2 dcBA | B2 c2 ABcA | B2 A3 G G2- |"^#" G2 F2 !fermata!G4 |] %42
w: vien-|nent de|toy _ _ _ _ que|pour moy _ _ _ _|ie re- * * * *||* * tiens.|
V:2
 z8 | z4 z2 G2 | G4 F4 | EDEF G3 F/E/ | D2 F2 F4 | D6 F2 | F4 F4 | D2 E2 D4 | B,4 z4 | z4 z2 G2 | %10
w: |Tous|les plai-|sirs _ _ _ _ _ _|_ qu'en lan-|gueur _|ie sous-||tiens,|tous|
"^b" F3 E D4 | z2 F2 F2 F2 | D2 E2 F4 | z2 F2 F4 | F4 F4- | F2 F2 F2 D2 | E2 F2 G2 F2 | F2 C2 F4- | %18
w: les en- nuys|qu'en joy- e|ie main- tiens,|tout l'es-|poir bon|_ que ta ri|gueur _ _ per-|met, que ta|
 F4 D3 E | F6 F2 | E4 z2 A2 | A4 G4 | A4 F2 G2- | GF F4 E2 |"^b" F4 D2 E2 | F4 D4 | z8 | z2 G2 G4 | %28
w: _ ri _|gueur per-|met, tous|les re-|gretz où ta|_ _ _ mer-|cy me _|_ met,,||vien- nent|
 F4 EDEF | G3 F/E/ D2 F2 | F4 D4 | z2 F2 F4 | F4 D2 E2 | D4 B,4 | z8 | z2 G2 G4 | F4 EDEF | %37
w: de toy _ _ _|_ _ _ _ que|pour moy,|que pour|moy ie _|re- tiens,||vien- nent|de toy _ _ _|
 G3 F/E/ D2 F2 | F4 D4- | D2 F2 F4 | F4 D2 E2 | D4 !fermata!B,4 |] %42
w: _ _ _ _ que|pour moy,|_ que pour|moy ie _|re- tiens.|
V:3
 z4 z2 d2 | d4 c4 | BABc d2 A2 | c2 c2 dcBA | B2 c2 ABcA | BAGF G2 A2 | c2 c2 dcBA | B2 c2 A4 | %8
w: Tous|les plai-|sirs _ _ _ _ que|lan- gueur _ _ _ _|ie sous- tiens _ _ _|_ _ _ _ _ que|lan- gueur ie _ _ _|_ _ sous-|
 G2 d2 c2 B2 | A2 d3 ccB/c/ | d4 z2 f2 | f2 f2 d4 | B4 c4 | z2 c2 c4 | d4 c4- | c4 z2 B2 | c4 d4 | %17
w: tiens, tous les en-|nuys _ _ _ _ _|_ qu'en|joy- e ie|main- tiens,|tout l'es-|poir bon|_ que|ta ri-|
 c2 f3 edc | dcBA B4 | A2 d2 d4 | c4 d2 f2- | fedc d4 | e4 d4 | B8 | c2 A2 B4 | c4 B4 | z2 d2 d4 | %27
w: gueur per- * * *||met, tous les|re- gretz, tous|_ _ _ _ les|re- gretz,|où|ta mer- cy|me met,|vien- nent|
 c4 BABc | d2 A2 c2 c2 | dcBA B2 c2 | ABcA BAGF | G2 A2 c2 c2 | dcBA B2 c2 | A4 z2 d2 | z2 d2 d4 | %35
w: de toy _ _ _|_ que pour moy|ie _ _ _ _ _|re _ _ _ tien _ _ _|_ que pour moy|ie _ _ _ _ re-|tiens vien-|* nent|
 c4 BABc | d2 A2 c2 c2 | dcBA B2 c2 | ABcA BAGF | G2 A2 c2 c2 | dcBA B2 c2 | A4 !fermata!G4 |] %42
w: _ toy _ _ _|_ _ que pour|_ _ _ _ _ _|||||
V:4
 z2 G,2 G,4 | F,4 E,D,E,F, | G,3 E, D,2 D,2 | A,2 A,2 G,4- | G,2 F,E, F,2 F,2 | B,,4 z2 F,2 | %6
w: Tous les|pla- sirs _ _ _|_ _ _ qu'en|lan- gueur ie|_ _ _ _ sous-|tiens, que|
 F,4 B,,2 F,2 | G,2 C,2 D,4 | G,,4 z4 | z2 G,2 F,2 E,2 | D,2 B,2 B,2 B,2 | A,2 B,3 A,G,F, | %12
w: lan- gueur ie|_ _ sous-|tiensn|tous les en-|nuys qu'en joy- e|ie main- * * *|
 G,4 F,4 | z2 F,2 F,4 | B,,4 F,4- | F,2 F,2 B,4 | A,4 G,2 B,2 | F,6 B,,2 | F,2 F,2 G,2 z2 | %19
w: * tiens,|tout l'es-|poir bon|_ que ta|ri- gueur per-|met, que|ta ri- gueur|
 D,2 D,2- D,E,F,G, | A,2 A,2 D,2 D2- | DCB,A, B,4 | A,4 B,4- | B,2 A,2 G,4 | F,4 G,4 | F,4 z2 G,2 | %26
w: per- met _ _ _ _|_ tous les re-||gretz, où|_ ta mer-|cy me|met, vien-|
 G,4 F,4 | E,D,E,F, G,3 F,/E,/ | D,2 D,2 A,2 A,2 | G,6 F,E, | F,2 F,2 B,,4 | z2 F,2 F,4 | %32
w: ent de|toy _ _ _ _ _ _|_ que pour moy|ie _ _|_ re- tiens,|que pour|
 B,,2 F,2 G,2 C,2 | D,4 G,,2 G,2 | G,4 F,4 | E,D,E,F, G,3 F,/E,/ | D,2 D,2 A,2 A,2 | G,6 F,E, | %38
w: moy ie re- *|* tiens, _|nent _|toy _ _ _ _ _ _|_ _ _ _|ie _ _|
 F,2 F,2 B,,4 | z2 F,2 F,4 | B,,2 F,2 G,2 C,2 | D,4 !fermata!G,,4 |] %42
w: _ _ _|que pour|moy ie _ _|re- tiens.|

